X: 38595
T: Stone Outside Dan Murphy's Door, The
R: waltz
M: 3/4
K: Amajor
ee|f2e2c2|A2E2A2|G2F2-F2-|F4Bc|d2B2G2|
(E2F2)E2|c6-|c4e2|f2e2c2|A2E2A2|
G2F2-F2-|F4Bc|d2B2G2|E2F2G2|A6-|A4B2|
B2c2^d2|e2f2e2|e2^d2-d2-|^d4dd|^d2F2G2|
A2^d2c2|B6-|B4e2|f2e2c2|A4EA|G2F2F2|
B4Bc|d2B2G2|E2F2G2|A6-|A4e2|f2e2c2|
A2E2A2|GF- F2-F2-|F4c2|d2B2G2|E2F2E2|
c6-|c4ee|f2e2c2|A4EA|G2F2F2|B4Bc|d2B2G2|
E2F2G2|A6-|A4||

